svgs/mrsool.svg

<svg width="192" height="192" viewBox="0 0 192 192" fill="none" xmlns="http://www.w3.org/2000/svg">
<path d="M141.769 63.7206L151.945 100.26M131.567 63.0383L101.59 132.852M60.1556 63.1272L90.3679 132.87M49.7051 63.5919L39.9263 100.034M153.939 48.117C153.939 52.3915 152.229 56.491 149.184 59.5135C146.139 62.536 142.01 64.2341 137.704 64.2341C135.572 64.2341 133.46 63.8172 131.49 63.0072C129.521 62.1973 127.731 61.0101 126.223 59.5135C124.716 58.0169 123.52 56.2402 122.704 54.2847C121.888 52.3293 121.468 50.2335 121.468 48.117C121.468 46.0005 121.888 43.9047 122.704 41.9493C123.52 39.9939 124.716 38.2172 126.223 36.7206C127.731 35.224 129.521 34.0368 131.49 33.2268C133.46 32.4169 135.572 32 137.704 32C142.01 32 146.139 33.698 149.184 36.7206C152.229 39.7431 153.939 43.8425 153.939 48.117ZM170 113.9C170 117.654 168.498 121.253 165.824 123.907C163.151 126.562 159.524 128.053 155.743 128.053C151.962 128.053 148.336 126.562 145.662 123.907C142.989 121.253 141.487 117.654 141.487 113.9C141.487 112.042 141.855 110.201 142.572 108.484C143.288 106.767 144.338 105.207 145.662 103.893C146.986 102.579 148.558 101.536 150.288 100.825C152.017 100.114 153.871 99.7479 155.743 99.7479C157.616 99.7479 159.469 100.114 161.199 100.825C162.929 101.536 164.5 102.579 165.824 103.893C167.148 105.207 168.198 106.767 168.915 108.484C169.631 110.201 170 112.042 170 113.9ZM110.257 145.871C110.257 149.625 108.755 153.224 106.081 155.878C103.407 158.532 99.7811 160.023 96 160.023C92.2189 160.023 88.5927 158.532 85.919 155.878C83.2454 153.224 81.7433 149.625 81.7433 145.871C81.7433 144.013 82.1121 142.172 82.8286 140.455C83.545 138.738 84.5952 137.178 85.919 135.864C87.2429 134.55 88.8145 133.507 90.5442 132.796C92.2739 132.085 94.1278 131.719 96 131.719C97.8722 131.719 99.7261 132.085 101.456 132.796C103.185 133.507 104.757 134.55 106.081 135.864C107.405 137.178 108.455 138.738 109.171 140.455C109.888 142.172 110.257 144.013 110.257 145.871ZM50.5133 113.709C50.5133 115.568 50.1446 117.408 49.4281 119.125C48.7116 120.842 47.6615 122.403 46.3377 123.717C45.0138 125.031 43.4422 126.073 41.7125 126.785C39.9828 127.496 38.1289 127.862 36.2567 127.862C34.3845 127.862 32.5306 127.496 30.8009 126.785C29.0712 126.073 27.4995 125.031 26.1757 123.717C24.8518 122.403 23.8017 120.842 23.0852 119.125C22.3688 117.408 22 115.568 22 113.709C22 111.851 22.3688 110.011 23.0852 108.294C23.8017 106.577 24.8518 105.016 26.1757 103.702C27.4995 102.388 29.0712 101.346 30.8009 100.634C32.5306 99.9232 34.3845 99.5571 36.2567 99.5571C38.1289 99.5571 39.9828 99.9232 41.7125 100.634C43.4422 101.346 45.0138 102.388 46.3377 103.702C47.6615 105.016 48.7116 106.577 49.4281 108.294C50.1446 110.011 50.5133 111.851 50.5133 113.709ZM70.4783 48.117C70.4783 50.2335 70.0584 52.3293 69.2425 54.2847C68.4265 56.2402 67.2306 58.0169 65.723 59.5135C64.2153 61.0101 62.4255 62.1973 60.4557 63.0072C58.4859 63.8172 56.3746 64.2341 54.2425 64.2341C49.9365 64.2341 45.8068 62.536 42.762 59.5135C39.7172 56.491 38.0067 52.3915 38.0067 48.117C38.0067 43.8425 39.7172 39.7431 42.762 36.7206C45.8068 33.698 49.9365 32 54.2425 32C56.3746 32 58.4859 32.4169 60.4557 33.2268C62.4255 34.0368 64.2153 35.224 65.723 36.7206C67.2306 38.2172 68.4265 39.9939 69.2425 41.9493C70.0584 43.9047 70.4783 46.0005 70.4783 48.117Z" stroke="black" stroke-width="12" stroke-linecap="round" stroke-linejoin="round"/>
</svg>

<svg xmlns="http://www.w3.org/2000/svg" width="192" height="192" fill="none"><path stroke="#000" stroke-linecap="round" stroke-linejoin="round" stroke-width="12" d="m141.769 63.72 10.176 36.54m-20.378-37.222-29.977 69.814M60.156 63.127l30.212 69.743M49.705 63.592l-9.779 36.442M153.94 48.117c0 4.275-1.71 8.374-4.755 11.397a16.3 16.3 0 0 1-11.48 4.72c-2.132 0-4.244-.417-6.214-1.227a16.3 16.3 0 0 1-5.267-3.493 16.1 16.1 0 0 1-3.519-5.23 16.01 16.01 0 0 1 0-12.335 16.1 16.1 0 0 1 3.519-5.228 16.3 16.3 0 0 1 5.267-3.494A16.35 16.35 0 0 1 137.704 32c4.306 0 8.435 1.698 11.48 4.72a16.06 16.06 0 0 1 4.755 11.397M170 113.9c0 3.754-1.502 7.353-4.176 10.007a14.3 14.3 0 0 1-10.081 4.146 14.3 14.3 0 0 1-10.081-4.146 14.1 14.1 0 0 1-4.175-10.007c0-1.858.368-3.699 1.085-5.416a14.1 14.1 0 0 1 3.09-4.591 14.3 14.3 0 0 1 4.626-3.068 14.35 14.35 0 0 1 10.911 0 14.3 14.3 0 0 1 4.625 3.068 14.2 14.2 0 0 1 3.091 4.591A14.1 14.1 0 0 1 170 113.9m-59.743 31.971c0 3.754-1.502 7.353-4.176 10.007A14.3 14.3 0 0 1 96 160.023a14.3 14.3 0 0 1-10.081-4.145 14.1 14.1 0 0 1-4.176-10.007c0-1.858.37-3.699 1.086-5.416a14.1 14.1 0 0 1 3.09-4.591 14.3 14.3 0 0 1 4.625-3.068 14.35 14.35 0 0 1 10.912 0 14.3 14.3 0 0 1 4.625 3.068 14.1 14.1 0 0 1 3.09 4.591 14.1 14.1 0 0 1 1.086 5.416m-59.744-32.162a14.1 14.1 0 0 1-1.085 5.416 14.15 14.15 0 0 1-3.09 4.592 14.3 14.3 0 0 1-4.626 3.068 14.35 14.35 0 0 1-10.911 0 14.3 14.3 0 0 1-4.625-3.068 14.15 14.15 0 0 1-3.09-4.592 14.06 14.06 0 0 1 0-10.831 14.15 14.15 0 0 1 3.09-4.592 14.3 14.3 0 0 1 4.625-3.068 14.36 14.36 0 0 1 10.912 0 14.3 14.3 0 0 1 4.625 3.068 14.15 14.15 0 0 1 3.09 4.592 14.1 14.1 0 0 1 1.085 5.415m19.965-65.592c0 2.117-.42 4.212-1.235 6.168a16.1 16.1 0 0 1-3.52 5.229 16.2 16.2 0 0 1-5.267 3.493 16.3 16.3 0 0 1-6.214 1.227 16.3 16.3 0 0 1-11.48-4.72 16.06 16.06 0 0 1-4.755-11.397c0-4.274 1.71-8.374 4.755-11.396A16.3 16.3 0 0 1 54.242 32c2.133 0 4.244.417 6.214 1.227s3.76 1.997 5.267 3.494a16.1 16.1 0 0 1 3.52 5.228 16 16 0 0 1 1.235 6.168"/></svg>
